ukui-icon-theme-default/scalable/actions/address-book-new-symbolic.svg

<?xml version="1.0" encoding="iso-8859-1"?>
<!-- Generator: Adobe Illustrator 24.0.0, SVG Export Plug-In . SVG Version: 6.00 Build 0)  -->
<svg version="1.1" id="&#x56FE;&#x5C42;_4" xmlns="http://www.w3.org/2000/svg" xmlns:xlink="http://www.w3.org/1999/xlink" x="0px"
	 y="0px" viewBox="0 0 16 16" style="enable-background:new 0 0 16 16;" xml:space="preserve">
<title>16</title>
<g id="_16">
	<path style="fill:#808080;" d="M13,2c0.552,0,1,0.448,1,1v10c0,0.552-0.448,1-1,1H6c-0.552,0-1-0.448-1-1V3c0-0.552,0.448-1,1-1H13
		 M13,1H6C4.895,1,4,1.895,4,3v10c0,1.105,0.895,2,2,2h7c1.105,0,2-0.895,2-2V3C15,1.895,14.105,1,13,1z"/>
	<path style="fill:#808080;" d="M4,3v1H3V3H4 M5,2H2v3h3V2z"/>
	<path style="fill:#808080;" d="M4,7v1H3V7H4 M5,6H2v3h3V6z"/>
	<path style="fill:#808080;" d="M4,11v1H3v-1H4 M5,10H2v3h3V10z"/>
	<circle style="fill:none;stroke:#808080;stroke-miterlimit:10;" cx="9.5" cy="5.5" r="2"/>
	<path style="fill:none;stroke:#808080;stroke-miterlimit:10;" d="M11.14,9.5H7.86c-0.784,0.032-1.393,0.693-1.361,1.477
		C6.499,10.984,6.5,10.992,6.5,11v0.6c-0.012,0.471,0.35,0.868,0.82,0.9h4.36c0.47-0.032,0.832-0.429,0.82-0.9V11
		c0.045-0.783-0.554-1.454-1.337-1.499C11.156,9.501,11.148,9.5,11.14,9.5z"/>
</g>
</svg>

<svg id="图层_4" data-name="图层 4" xmlns="http://www.w3.org/2000/svg" viewBox="0 0 16 16"><defs><style>.cls-1{fill:gray;}.cls-2{fill:none;stroke:gray;stroke-miterlimit:10;}</style></defs><title>16</title><g id="_16" data-name="16"><path class="cls-1" d="M13,2a1,1,0,0,1,1,1V13a1,1,0,0,1-1,1H6a1,1,0,0,1-1-1V3A1,1,0,0,1,6,2h7m0-1H6A2,2,0,0,0,4,3V13a2,2,0,0,0,2,2h7a2,2,0,0,0,2-2V3a2,2,0,0,0-2-2Z"/><path class="cls-1" d="M4,3V4H3V3H4M5,2H2V5H5V2Z"/><path class="cls-1" d="M4,7V8H3V7H4M5,6H2V9H5V6Z"/><path class="cls-1" d="M4,11v1H3V11H4m1-1H2v3H5V10Z"/><circle class="cls-2" cx="9.5" cy="5.5" r="2"/><path class="cls-2" d="M11.14,9.5H7.86A1.42,1.42,0,0,0,6.5,11v.6a.88.88,0,0,0,.82.9h4.36a.88.88,0,0,0,.82-.9V11A1.42,1.42,0,0,0,11.14,9.5Z"/></g></svg>
